X:188
U: ~ = !turn!
%%topmargin 3cm
T:Sean Ryan's Reel
B:Traditional Irish Fiddle Tunes. Randy Miller and Jack Perron.
Z:Transcribed by Ralph Palmer
R:Reel
M:C|
L:1/8
K:D
~d3w B AF (3.F.F.F | GEFD EDB,D | ~A,3 B, DEFD | GEFD EDB,D |
~d3w B AF (3.F.F.F | GEFD EDB,D | ~A,3 B, DEFD | EDEF DEFA ::
dcdf afdf | Pg2 fg ((3efg) dB | AF (3.F.F.F DFAF | GEFD EDB,D |
"(A"[|] dcdf afdf | Pg2 fg ((3efg) dB | AF (3.F.F.F DFAF | GECE DEFA "A)":|]
"(A"|| A,DFA dfaf | bgaf gedB | ~d3 A BAFA | GECE D4 "A)"||
